X:1
T:Denn er hat seinen Engeln befohlen
T:Denn er hat seinen Engeln befohlen
T:Mendelssohn Bartoldy, Felix 
C:Mendelssohn Bartoldy, Felix
%%score [ ( 1 2 ) ( 3 4 ) ( 5 6 ) ( 7 8 ) ]
L:1/8
Q:1/4=105
M:4/4
K:G
V:1 treble nm="Sopran I,II"
V:2 treble 
V:3 treble nm="Alt I,II"
V:4 treble 
V:5 treble-8 nm="Tenor I,II"
V:6 treble-8 
V:7 bass nm="Bass I,II"
V:8 bass 
V:1
!p! d2 | d2!<(! d2 d2 d2!<)! | g4!>(! B2 B2!>)! | A2!<(! B2 c2 e2!<)! |!>(! d8- | d2!>)! z2 z4 | %6
w: Denn|er hat sei- nen|Eng- eln be-|foh- len ü- ber|dir,||
w: ||||||
 z8 | z8 | z4 z2 d2 | d2!<(! d2 d2 d2!<)! | g4!>(! B2 B2!>)! | B2 A2!<(! e2 e2!<)! |!>(! ^d8- | %13
w: ||denn|er hat sei- nen|Eng- eln be-|foh- len ü- ber|dir,|
w: |||||||
 d2!>)! z2 z4 | z4!mf! e4- | e2"^cresc." e2 f2 e2 | d4 d2 d2 | d2 f2 e2 d2"^dim." | ^c4 d4- | %19
w: |dass|* sie dich be-|hü- ten auf|al- len dei- nen|We- gen,|
w: ||||||
 d2 d2 ^c2 B2 |!>(! A6 B2!>)! |!pp! A8 | A4 z4 | z8 | z8 |!mp! z4 A2 A2 | A2"^cresc." AA B2 B2 | %27
w: * auf al- len|dei- nen|We-|gen,|||dass sie|dich auf den Hän- den|
w: ||||||||
 d4 c4 | z8 | z4!<(! G2 G2 | c2 cc e2 e2!<)! |!f! g4!>(! e4!>)! |!p!"^poco" e4 e4 | %33
w: tra- gen||dass sie|dich auf den Hän- den|tra- gen|und du|
w: ||||||
 d2 d2 (^c2 B2) | ^A2!<(! B2 ^c2 d2!<)! | e8 | d4 d4 | z8 | z4 z2!mf! ^c2 |!<(! d2 d2 d2 d2!<)! | %40
w: dei- nen Fuss *|nicht an ei- nen|Stein,|||||
w: ||Stein|sto- ssest,||||
 g4!>(! B2 B2!>)! | A2!<(! B2 c2 e2!<)! |!>(! d4!>)!!p! G2 G2 | A2 AA B2 B2 | c4 c4 | %45
w: |||||
w: ||* dass sie|dich auf den Hän- den|tra- gen,|
"^cresc." ^c2 cc c2 c2 | d4 d4 |!f! d4 d2 d2 | e4 g4 |!>(! (A6 Bc)!>)! | B4 z4 | %51
w: ||||||
w: ||||||
 z4!p!!<(! G2 A2!<)! |!<(! B2 B2!<)! e4 |!>(! d2 G2"^cresc." G2 A2!>)! | B2 B2 e4 | d4!f! d2 d2 | %56
w: |||||
w: |||||
 (d2 c2) (B2 c2) | (B4 A4) |!>(! d8!>)! | z8 | B2"^cresc." B2 c2 ^c2 | (d2 g2) f2!>(! e2!>)! | %62
w: ||||||
w: ||||* * * be-|hü- * ten auf|
 d2 B2!<(! A2 e2!<)! | d8- |!>(! d4 G4!>)! | z8 |!mp! z4 B2 B2 |!<(! (B6!<)!!>(! A2)!>)! | G8 | %69
w: |||||||
w: al- len dei- nen|We-|* gen,|||||
 z8 |!p! z2"^più" B2 B2 B2 |!<(! (B6!<)!!>(! A2)!>)! |!pp! G6 x2 |] %73
w: ||||
w: ||||
V:2
 B2 | B2 B2 c2 c2 | B4 G2 G2 | G2 G2 c2 c2 | B8- | B2 z2 z4 | x8 | x8 | z4 z2 A2 | B2 B2 c2 c2 | %10
w: ||||||||||
 B4 G2 G2 | G2 G2 F2 A2 | B8- | B2 z2 z4 | z4 ^c4- | c2 ^c2 c2 c2 | ^c4 B2 B2 | B2 B2 e2 G2 | %18
w: ||||||||
 A4 d4- | d2 B2 ^c2 d2 | A6 G2 | F4- A4 | A4 z4 | x8 | x8 | z4 A2 A2 | A2 AA A2 A2 | ^G4 A4 | x8 | %29
w: |||||||||||
 z4 G2 G2 | G2 GG c2 c2 | e4 e4 | ^c4 c4 | B2 B2 B4 | F2 ^G2 ^A2 B2 | ^c8- | c2 ^c2 B2 A2 | %37
w: |||||||* an ei- nen|
 (^G2 d2 ^c2 B2) | B4 ^A2 A2 | B2 B2 c2 c2 | B4 G2 G2 | G2 G2 G2 c2 | B4 z4 | z8 | z4 E2 E2 | %45
w: Stein * * *|sto- ssest, denn|er hat sei- nen|En- geln be-|foh- len ü- ber|dir,||dass sie|
 A2 AA A2 A2 | d4 B4 | d4 B2 B2 | e4 c4 | A8 | G4 z4 | z4 G2 G2 | G2 B2 c4 | G2 G2 G2 G2 | %54
w: dich auf den Hän- den|tra- gen,|dich auf den|Hän- den|tra-|gen,|dass sie|dich be- hü-|ten auf al- len|
 G2 G2 c4 | B4 B2 B2 | (B2 c2) G4 | (G4 D4) | D8 | x8 | G2 G2 A2 ^A2 | (B2 G2) (D4- | %62
w: dei- nen We-|gen, dass sie|dich * be-|hü- *|ten,||dass sie dich be-|hü- * ten,|
 D2 d2) c2 _B2 | A8 | G8 | x8 | z4 G2 G2 | (G4 F4) | G8 | x8 | z2 G2 G2 G2 | (G4 F4) | %72
w: * * dich be-|hü-|ten,||dich be-|hü- *|ten||auf dei- nen|We- *|
 !fermata!G6 x2 |] %73
w: gen.|
V:3
!p! G2 | G2!<(! G2 G2 F2!<)! | G4!>(! E2 E2!>)! | E2!<(! G2 G2 F2!<)! |!>(! G8- | G2!>)! z2 z4 | %6
w: ||||||
w: ||||||
 z8 | z8 | z4 z2 F2 | G2!<(! G2 G2 F2!<)! | G4!>(! E2 E2!>)! | E2 E2!<(! A2 F2!<)! |!>(! F8-!>)! | %13
w: |||||||
w: |||||||
 F2 z2 z4 | z4!mf! A4- | A2"^cresc." A2 A2 A2 | A4 A2 A2 | ^G2 G2 =G2 G2"^dim." | G4 F4- | %19
w: ||||||
w: ||||||
 F2 E2 E2 E2 |!>(! E4 (A2!>)! D2) |!pp! (F6 E2) | F4 z4 | z8 | z8 |!mp! z4 F2 F2 | %26
w: |||||||
w: |||||||
 =F2"^cresc." FF F2 F2 | =F4 E4 | z8 | z4!<(! E2 E2 | G2 GG G2!<)! G2 |!f! c4!>(! G4!>)! | %32
w: ||||||
w: ||||||
!p!"^poco" G4 E4 | B,2 B,2 B,4 | ^C2!<(! D2 E2 F2!<)! | (G4 F4) | (F8 |"^II" ^E8- | E4) F2!mf! F2 | %39
w: |||||||
w: |||||||
!<(! B2 B2 A2!<)! A2 | B4!>(! D2 G2!>)! | G2!<(! =F2 E2 ^F2!<)! |!>(! G4!>)! z4 | z4!p! G2 G2 | %44
w: |||||
w: ||||dass sie|
 G2 GG G2 G2 |"^cresc." G4!mf! G4 | F4 F4 |!f! G4 B2 B2 | (c2 B2) (A2 G2) |!>(! (F2 E2 D4)!>)! | %50
w: ||||||
w: dich auf- den Hän- den|tra- gen,|dass sie||||
 D4 z4 | z4!p!!<(! E2 E2!<)! |!<(! =F2 F2!<)! E4 |!>(! G2 D2"^cresc." E2 E2!>)! | =F2 F2 E4 | %55
w: |||||
w: |||||
 G4!f! G2 G2 | G4 G4 | (G4 F4) |!>(! G8!>)! | z8 |!>(! G8-!>)!"^cresc." | G2 B2!>(! A2 G2!>)! | %62
w: |||||||
w: |||||dass|* sie dich be-|
 (G8- | G4!>(! F4) | G8!>)! | z8 |!mp! z4 D2 D2 |!<(! D8!<)! |!>(! D8!>)! | z8 | %70
w: ||||||||
w: hü-||ten,||||||
!p! z2"^più" D2 D2 D2 |!<(! D8!<)! |!pp!!>(! D6 x2!>)! |] %73
w: |||
w: |||
V:4
 G2 | G2 G2 D2 D2 | E4 D2 D2 | C2 D2 E2 C2 | G8- | G2 z2 z4 | x8 | x8 | z4 z2 D2 | D2 D2 D2 D2 | %10
w: Denn|er hat sei- nen|Eng- eln be-|foh- len ü- ber|dir,||||denn|er hat sei- nen|
 E4 D2 D2 | C2 C2 C2 C2 | B,8- | B,2 z2 z4 | z4 E4- | E2 E2 A2 A2 | D4 D2 D2 | E2 E2 E2 B,2 | %18
w: Eng- eln be-|foh- len ü- ber|dir,||dass|* sie dich be-|hü- ten auf|al- len dei- nen|
 ^C4 F4- | F2 B2 G2 E2 | E4 (F2 D2) | (D4 ^C4) | D4 z4 | x8 | x8 | z4 D2 D2 | D2 DD D2 D2 | D4 E4 | %28
w: We- gen,|* auf al- len|dei- nen *|We- *|gen,|||dass sie|dich auf den Hän- den|tra- gen|
 x8 | z4 C2 C2 | E2 EE G2 G2 | G4 G4 | G4 ^C4 | F2 F2 ^E4 | F2 F2 F2 F2 | (E4 F4) | F8 | ^G8- | %38
w: |dass sie|dich auf- den Hän- den|tra- gen|und du|dei- nen Fuss|nicht an ei- nen|Stein *|sto-||
 G4 F2 F2 | F2 F2 D2 D2 | D4 D2 D2 | C2 D2 E2 C2 | G4 z4 | z8 | z8 | z4 E2 E2 | D2 DD F2 F2 | %47
w: * ssest, denn|er hat sei- nen|Eng- eln be-|foh- len ü- ber|dir,|||dass sie|dich auf den Hän- den|
 B4 B2 G2 | F4 A4 | D8 | D4 z4 | z4 C2 C2 | D2 D2 C4 | G2 G2 E2 C2 | D2 D2 C4 | D4 G2 G2 | G4 G4 | %57
w: dich auf den|Hän- den|tra-|gen,|dass sie|dich be- hü-|ten auf al- len|dei- nen We-|gen, dass sie|dich be-|
 D8 | D8 | x8 | z8 | z8 | G2 G2!<(! A2 _B2!<)! | D8 | D8 | x8 | z4 B,2 B,2 | C8 | B,8 | x8 | %70
w: hü-|ten,||||dass sie dich be-|hü-|ten,||dich be-|hü-|ten||
 z2 D2 D2 D2 | D8 | !fermata!D6 z2 |] %73
w: auf dei- nen|We-|gen.|
V:5
 z2 | z8 | z8 | z8 |!p! z4 d4- | d2!<(! d2 e2!<)!!>(! d2!>)! | c4 c2 c2 | c2!<(! B2 A2 e2!<)! | %8
w: ||||||||
w: ||||||||
!>(! d8!>)! | d4 z4 | z8 | z8 | z4 ^d4- | d2"^cresc." ^d2 e2 =d2 | ^c4 c4- | c4 f2 f2 | f4 f2 d2 | %17
w: |||||||||
w: |||||||||
 d2 d2 ^c2 d2"^dim." | e4 d2 ^c2 | (B4 e2) d2 |!>(! ^c4 d4!>)! | z4 A4 | A2!<(! d2 ^c2 e2!<)! | %23
w: ||||||
w: ||||||
 d4 d2 d2 | d2 d2 g2 g2 |!>(! f8!>)! | z8 |!mf! z4 c2 c2 | c2"^cresc." cc d2 d2 | =f4 e4- | %30
w: |||||||
w: |||||||
 e2 ee e2 e2 | (e4 (B4 | ^c4)!>(! f4) | f4!>)! z4 | F2 f2 e2 d2 | ^c4 c2 c2 | (d2 e2) f4 | %37
w: |||||||
w: |||||||
 (B4 ^c2 d2) | (d4 ^c2 e2 | d8- | d4 =f4 | e2 d2 c4) | d4!p! d2 d2 | d2 dd d2 d2 | c4 c4 | %45
w: ||||||||
w: ||||||||
"^cresc." e2 ee e2 e2 | B4 d4 |!f! =f4 f2 f2 | e4 e4 |!>(! (c6 A2)!>)! | G4!p!!<(! G2 A2 | %51
w: ||||||
w: ||||||
 B2!<)! B2 e4 |!>(! d2!>)! G2 G2 A2 | B2 B2!<(! e4 | d4!<)! G2 G2 | d8 | g6 c2 |!>(! d8 | %58
w: |||||||
w: |||||||
!mf! d4!>)! d2 d2 | (d2 c2) (B2 c2) | (B2 G2) D4 | z8 | B2!<(! B2 c2 ^c2!<)! | d8 |!mf! d4 d2 d2 | %65
w: |||||||
w: * dass sie|dich * be- *|hü- * ten||dass sie dich be-|hü-|ten, * *|
!<(! (d6!<)!!>(! c2)!>)! |!>(! B8!>)! | z8 |!p! z2 d2 d2 d2 |!<(! (d6!<)!!>(! c2)!>)! | %70
w: |||||
w: |||||
!p! B2"^più" B2 B2 B2 |!<(! c8!<)! |!pp!!>(! B6 x2!>)! |] %73
w: |||
w: |||
V:6
 x2 | x8 | x8 | x8 | z4 B4- | B2 B2 B2 B2 | B4 A2 G2 | F2 G2 A2 A2 | A8 | G4 z4 | x8 | x8 | %12
w: ||||dass|* sie dich be-|hü- ten auf|al- len dei- nen|We-|gen,|||
 z4 B4- | B2 B2 B2 B2 | B4 A4- | A4 ^c2 c2 | d4 d2 B2 | B2 B2 ^c2 B2 | A4 D2 F2 | B6 B2 | e4 d4 | %21
w: dass|* sie dich be-|hü- ten,|* dich be-|hü- ten auf|al- len dei- nen|We- gen, auf|dei- nen|We- gen,|
 z4 G4 | F2 F2 E2 G2 | F4 B2 B2 | B2 A2 d2 d2 | d8 | x8 | z4 c2 c2 | c2 cc c2 c2 | c4 c4- | %30
w: denn|er hat sei- nen|Eng- eln be-|foh- len ü- ber|dir,||dass sie|dich auf den Hän- den|tra- gen,|
 c2 cc c2 c2 | (c4 e4 | e4 ^c4) | d4 x4 | F2 d2 ^c2 B2 | B4 ^A2 A2 | (B2 ^c2) d4 | ^G8 | %38
w: * auf den Hän- den|tra- *||gen|und du dei- nen|Fuss nicht an|ei- * nen|Stein|
 (^G4 ^A2 ^c2 | B4 F4 | B4 d4 | G6 A2) | B4 B2 B2 | c2 cc B2 B2 | G4 G4 | ^c2 cc c2 c2 | F4 F4 | %47
w: sto- * *||||ssest, dass sie|dich auf den Hän- den|tra- gen,|dich auf den Hän- den|tra- gen,|
 d4 d2 G2 | G4 G4 | D8 | D4 G2 G2 | G2 G2 c4 | B2 G2 G2 F2 | G2 G2 c4 | B4 G2 G2 | B8 | G6 A2 | %57
w: dich auf den|Hän- den|tra-|gen, dass sie|dich be- hü-|ten auf al- len|dei- nen We-|gen, dass sie|dich,|dich be-|
 (B4 d4) | d4 B2 B2 | (B2 c2) G4 | z8 | B2 B2 c2 ^c2 | (d4 e4 | A2 B2!>(! c4)!>)! | B4 B2 B2 | %65
w: hü- *|ten, dich be-|hü- * ten,||dass sie dich be-|hü- *||ten, dich be-|
 (G4 A4) | D8- | D8- | D2 G2 G2 G2 | (G4 F4) | G2 G2 G2 G2 | D8 | !fermata!G6 x2 |] %73
w: hü- *|ten||* auf dei- nen|We- *|gen, auf dei- nen|We-|gen.|
V:7
 z2 | z8 | z8 | z8 | z4!p! G,4- | G,2!<(! G,2!<)! G,2!>(! G,2!>)! | E,4 E,2 E,2 | %7
w: |||||||
w: |||||||
 A,2!<(! D,2 G,2 G,2!<)! |!>(! (G,4 F,4)!>)! | B,4 z4 | z8 | z8 | z4 F,4- | %13
w: ||||||
w: ||||||
 F,2"^cresc." F,2 E,2 E,2 | E,4 E,4 | A,6 A,2 | F,4 F,2 F,2 | E,2 E,2 E,2 E,2"^dim." | %18
w: |||||
w: |||||
 E,4 B,,2 D,2 | G,6 G,2 |"^etwas hervortretend"!>(! A,4!>)! A,2 z2 | z4 A,4 | %22
w: ||||
w: ||||
 A,2!<(! A,2 A,2 A,2!<)! | D4 F,2 F,2 | E,2 F,2 G,2 B,2 |!>(! A,8!>)! | z8 |!mf! z4 A,2 A,2 | %28
w: ||||||
w: ||||||
 A,2"^cresc." A,A, A,2 A,2 | A,4 G,4- | G,2 G,G, G,2 G,2 | (G,8 | G,4!>(! F,4) |!mf! F,4!>)! G,4 | %34
w: ||||||
w: |||||* und|
 F,4 F,2 F,2 | F,4 F,2 F,2 | F,4 B,4 | (B,8- | B,4 F,4- | F,4 A,4) | (G,8- | G,4 C4) | %42
w: ||||||||
w: du dei- nen|Fuss nicht an|ei- nen|Stein|||sto-||
 G,4!p! B,2 B,2 | A,2 A,A, G,2 G,2 | C4 _B,4 |"^cresc." A,2 A,A, A,2 A,2 | B,4 B,4 | %47
w: |||||
w: ssest, * *|||||
!f! B,4 G,2 G,2 | G,4 C,4 |!>(! (A,2 G,2 F,4)!>)! | G,4!p!!<(! E,2 E,2 | G,2!<)! G,2 G,4 | %52
w: |||||
w: |||||
!>(! G,2!>)! G,2 G,2 C,2 | D,2 D,2!<(! G,4 | G,4!<)! G,2 G,2 | G,8- | G,6 G,2 |!>(! (G,4 A,4)!>)! | %58
w: ||||||
w: ||||||
!mf! B,4 G,2 G,2 | G,8 | D,8 | G,2 G,2 A,2 ^A,2 | (B,2 G,2 D,4 | D,8) |!mf!!>(! D,4 =F,2 F,2!>)! | %65
w: |||||||
w: * dich be-|hü-|ten,|dass sie dich be-|hü- * *||ten, * *|
!<(! (E,4!<)!!>(! F,4)!>)! |!>(! G,4!>)! G,4 |!<(! D,8!<)! |!>(! G,2 =F,2 F,2 F,2!>)! | %69
w: ||||
w: ||||
!<(! (E,4!<)!!>(! _E,4)!>)! |!p! D,2"^più" D,2 D,2 D,2 |!<(! D,8!<)! |!pp!!>(! D,6 x2!>)! |] %73
w: ||||
w: ||||
V:8
 x2 | x8 | x8 | x8 | z4 G,4- | G,2 G,2 E,2 E,2 | A,,4 A,,2 A,,2 | A,,2 B,,2 C,2 ^C,2 | D,8 | %9
w: ||||dass|* sie dich be-|hü- ten auf|al- len dei- nen|We-|
 G,,4 z4 | x8 | x8 | z4 B,,4- | B,,2 A,,2 G,,2 G,,2 | A,,4 A,,4 | G,,4 F,,4 | B,,4 B,,2 B,,2 | %17
w: gen,|||dass|* sie dich be-|hü- ten,|dich be-|hü- ten auf|
 E,2 E,2 E,2 E,2 | A,,4 B,,2 A,,2 | G,,6 G,,2 | G,,4 F,,2 G,,2 | A,,6 A,,2 | D,2 D,2 A,,2 A,,2 | %23
w: al- len dei- nen|We- gen, auf|dei- nen|We- gen, denn|er, denn|er hat sei- nen|
 B,,4 A,,2 A,,2 | G,,2 A,,2 B,,2 G,,2 | D,8 | x8 | z4 A,2 A,2 | G,2 G,G, =F,2 F,2 | =F,4 C,4- | %30
w: Eng- eln be-|foh- len ü- ber|dir,||dass sie|dich auf den Hän- den|tra- gen,|
 C,2 C,C, C,2 C,2 | (C,4 B,,4- | B,,4 ^A,,4) | B,,4 z4 | F,2 F,2 F,,2 F,,2 | F,,4 F,,2 F,,2 | %36
w: * auf den Hän- den|tra- *||gen|und du dei- nen|Fuss nicht an|
 F,,8 | F,,8 | F,,8- | F,,8 | G,,8- | G,,8 | G,,4 G,2 G,2 | =F,2 F,F, F,2 F,2 | E,4 E,4 | %45
w: ei-|nen|Stein||sto-||ssest, dass sie|dich auf den Hän- den|tra- gen,|
 A,,2 A,,A,, A,,2 A,,2 | B,,4 B,,4 | G,,4 G,,2 G,,2 | C,4 C,4 | D,8 | G,,4 E,2 E,2 | D,2 D,2 C,4 | %52
w: dich auf den Hän- den|tra- gen,|dich auf den|Hän- den|tra-|gen, dass sie|dich be- hü-|
 G,,2 G,,2 C,2 C,2 | B,,2 B,,2 C,4 | G,,4 G,2 G,2 | (=F,8 | E,4) _E,4 | (D,4 C,4) | B,,4 =F,2 F,2 | %59
w: ten auf al- len|dei- nen We-|gen, dass sie|dich|* be-|hü- *|ten, dich be-|
 E,4 _E,4 | D,8- | D,4 D,4 | D,8- | D,8 | G,,4 G,,2 G,,2 | G,,8 | G,,4 G,,4 | G,,8 | %68
w: hü- ten,|dich|* be-|hü-||ten, dich be-|hü-|ten, be-|hü-|
 G,,2 G,,2 G,,2 G,,2 | G,,8 | G,,2 G,,2 G,,2 G,,2 | G,,8 | !fermata!G,,6 x2 |] %73
w: ten auf dei- nen|We-|gen, auf dei- nen|We-|gen.|

